X: 2052
T: Red Belly Jig
R: jig
C: Rick Gagne
N: 1991 on whistle
N: no C or C# notes
M: 6/8
Q: 1/4=165
K: Em
"Em"gag "Bm"f2f | "Am"efg "Bm"fdB | "C"efg "Bm"fdB | "Am"eBg "C"edB | 
"Em"gag "Bm"fgf | "Am"efg "Bm"fdB | "C"edB "Bm"ged |1 "Em"BAG E2e :|\
[2 "Em"BAG E2E ||
"Em"EGB e2e | EGB dBe | EGB e2f | "C"gfg "Bm"edB | 
"Em"EGB e2e | EGB dBe | "D"dBA d2e |1 fef dBA :|2 fef def ||
